www/images/drop@2x.svg

<svg fill="none" height="54" viewBox="0 0 55 54" width="55" xmlns="http://www.w3.org/2000/svg"><path d="m35.4421 18.9918h-.0936c-.3452-.0003-.6871.0658-1.0064.1944v-3.5262c-.001-.4282-.1091-.8496-.3149-1.2272s-.5029-.6998-.8652-.9382c-.3623-.2383-.7787-.3857-1.2126-.429-.434-.0433-.8721.0187-1.2758.1806v-.0972c-.0312-.6719-.3249-1.3062-.8202-1.7708-.4953-.4647-1.154-.724-1.8391-.724s-1.3438.2593-1.839.724c-.4953.4646-.7891 1.0989-.8202 1.7708v2.4246c-.4035-.1622-.8414-.2244-1.2751-.1811s-.8499.1907-1.2119.4292-.6586.5609-.8637.9386c-.2051.3776-.3124.7991-.3123 1.2271v9.072l-.1155-.1728-.055-.0756c-.4282-.5335-1.0546-.8781-1.7416-.9581-.6869-.08-1.3781.1112-1.9214.5315-.5434.4203-.8944 1.0354-.9759 1.7099-.0815.6744.1132 1.353.5414 1.8865l5.874 8.9586v3.7206c0 .2148.0869.4209.2416.5728s.3645.2372.5834.2372h10.9065c.2188 0 .4286-.0853.5833-.2372s.2417-.358.2417-.5728v-3.699l2.0955-2.8944c.0972-.138.149-.302.1484-.4698v-13.9968c0-.6917-.2798-1.3551-.778-1.8443-.4982-.4891-1.1739-.7639-1.8784-.7639zm1.0064 16.3458-2.0899 2.8944c-.0999.1371-.1537.3013-.1541.4698v3.1482h-9.2564v-3.1482c.0011-.1554-.0448-.3077-.132-.4374l-6.0225-9.18-.044-.0594c-.1486-.1883-.2193-.4248-.1979-.6621s.1333-.4579.3134-.6177c.0951-.0855.2073-.1508.3294-.1917s.2515-.0565.3801-.0459c.2477.0184.4785.1307.6435.3132l1.6005 2.4192c.0955.1492.238.2638.4058.3264.1679.0625.3519.0695.5242.0201.1723-.0495.3235-.1528.4306-.2943.1071-.1414.1643-.3133.1629-.4896v-11.826c0-.2621.106-.5134.2947-.6988.1888-.1853.4448-.2894.7118-.2894.2669 0 .5229.1041.7117.2894.1887.1854.2948.4367.2948.6988v9.2934c0 .2148.0869.4209.2416.5728s.3645.2372.5834.2372c.2188 0 .4286-.0853.5833-.2372s.2417-.358.2417-.5728v-14.1318c.0188-.2502.1333-.4841.3205-.6548s.4332-.2656.6887-.2656.5015.0949.6887.2656.3017.4046.3206.6548v14.1318c0 .2148.0869.4209.2416.5728s.3645.2372.5834.2372c.2188 0 .4286-.0853.5833-.2372s.2417-.358.2417-.5728v-11.61c.0188-.2502.1333-.4841.3205-.6548s.4332-.2656.6887-.2656.5015.0949.6887.2656.3017.4046.3205.6548v12.8358c0 .2148.087.4209.2417.5728s.3645.2372.5833.2372c.2189 0 .4287-.0853.5834-.2372s.2417-.358.2417-.5728v-6.8958c0-.2621.106-.5134.2947-.6988.1888-.1853.4448-.2894.7117-.2894h.0936c.2669 0 .5229.1041.7117.2894.1887.1854.2947.4367.2947.6988z" fill="#000"/><path d="m36.4485 35.3376-2.0899 2.8944c-.0999.1371-.1537.3013-.1541.4698v3.1482h-9.2564v-3.1482c.0011-.1554-.0448-.3077-.132-.4374l-6.0225-9.18-.044-.0594c-.1486-.1883-.2193-.4248-.1979-.6621s.1333-.4579.3134-.6177c.0951-.0855.2073-.1508.3294-.1917s.2515-.0565.3801-.0459c.2477.0184.4785.1307.6435.3132l1.6005 2.4192c.0955.1492.238.2638.4058.3264.1679.0625.3519.0695.5242.0201.1723-.0495.3235-.1528.4306-.2943.1071-.1414.1643-.3133.1629-.4896v-11.826c0-.2621.106-.5134.2947-.6988.1888-.1853.4448-.2894.7118-.2894.2669 0 .5229.1041.7117.2894.1887.1854.2948.4367.2948.6988v9.2934c0 .2148.0869.4209.2416.5728s.3645.2372.5834.2372c.2188 0 .4286-.0853.5833-.2372s.2417-.358.2417-.5728v-14.1318c.0188-.2502.1333-.4841.3205-.6548s.4332-.2656.6887-.2656.5015.0949.6887.2656.3017.4046.3206.6548v14.1318c0 .2148.0869.4209.2416.5728s.3645.2372.5834.2372c.2188 0 .4286-.0853.5833-.2372s.2417-.358.2417-.5728v-11.61c.0188-.2502.1333-.4841.3205-.6548s.4332-.2656.6887-.2656.5015.0949.6887.2656.3017.4046.3205.6548v12.8358c0 .2148.087.4209.2417.5728s.3645.2372.5833.2372c.2189 0 .4287-.0853.5834-.2372s.2417-.358.2417-.5728v-6.8958c0-.2621.106-.5134.2947-.6988.1888-.1853.4448-.2894.7117-.2894h.0936c.2669 0 .5229.1041.7117.2894.1887.1854.2947.4367.2947.6988z" fill="#fff"/></svg>

<svg width="55" height="54" viewBox="0 0 55 54" fill="none" xmlns="http://www.w3.org/2000/svg">
<path d="M35.4421 18.9918H35.3485C35.0033 18.9915 34.6614 19.0576 34.3421 19.1862V15.66C34.3411 15.2318 34.233 14.8104 34.0272 14.4328C33.8214 14.0552 33.5243 13.733 33.162 13.4946C32.7997 13.2563 32.3833 13.1089 31.9494 13.0656C31.5154 13.0223 31.0773 13.0843 30.6736 13.2462V13.149C30.6424 12.4771 30.3487 11.8428 29.8534 11.3782C29.3581 10.9135 28.6994 10.6542 28.0143 10.6542C27.3292 10.6542 26.6705 10.9135 26.1753 11.3782C25.68 11.8428 25.3862 12.4771 25.3551 13.149V15.5736C24.9516 15.4114 24.5137 15.3492 24.08 15.3925C23.6463 15.4358 23.2301 15.5832 22.8681 15.8217C22.5061 16.0602 22.2095 16.3826 22.0044 16.7603C21.7993 17.1379 21.692 17.5594 21.6921 17.9874V27.0594L21.5766 26.8866L21.5216 26.811C21.0934 26.2775 20.467 25.9329 19.78 25.8529C19.0931 25.7729 18.4019 25.9641 17.8586 26.3844C17.3152 26.8047 16.9642 27.4198 16.8827 28.0943C16.8012 28.7687 16.9959 29.4473 17.4241 29.9808L23.2981 38.9394V42.66C23.2981 42.8748 23.385 43.0809 23.5397 43.2328C23.6944 43.3847 23.9042 43.47 24.1231 43.47H35.0296C35.2484 43.47 35.4582 43.3847 35.6129 43.2328C35.7676 43.0809 35.8546 42.8748 35.8546 42.66V38.961L37.9501 36.0666C38.0473 35.9286 38.0991 35.7646 38.0985 35.5968V21.6C38.0985 20.9083 37.8187 20.2449 37.3205 19.7557C36.8223 19.2666 36.1466 18.9918 35.4421 18.9918ZM36.4485 35.3376L34.3586 38.232C34.2587 38.3691 34.2049 38.5333 34.2045 38.7018V41.85H24.9481V38.7018C24.9492 38.5464 24.9033 38.3941 24.8161 38.2644L18.7936 29.0844L18.7496 29.025C18.601 28.8367 18.5303 28.6002 18.5517 28.3629C18.5731 28.1256 18.685 27.905 18.8651 27.7452C18.9602 27.6597 19.0724 27.5944 19.1945 27.5535C19.3166 27.5126 19.446 27.497 19.5746 27.5076C19.8223 27.526 20.0531 27.6383 20.2181 27.8208L21.8186 30.24C21.9141 30.3892 22.0566 30.5038 22.2244 30.5664C22.3923 30.6289 22.5763 30.6359 22.7486 30.5865C22.9209 30.537 23.0721 30.4337 23.1792 30.2922C23.2863 30.1508 23.3435 29.9789 23.3421 29.8026V17.9766C23.3421 17.7145 23.4481 17.4632 23.6368 17.2778C23.8256 17.0925 24.0816 16.9884 24.3486 16.9884C24.6155 16.9884 24.8715 17.0925 25.0603 17.2778C25.249 17.4632 25.3551 17.7145 25.3551 17.9766V27.27C25.3551 27.4848 25.442 27.6909 25.5967 27.8428C25.7514 27.9947 25.9612 28.08 26.1801 28.08C26.3989 28.08 26.6087 27.9947 26.7634 27.8428C26.9181 27.6909 27.0051 27.4848 27.0051 27.27V13.1382C27.0239 12.888 27.1384 12.6541 27.3256 12.4834C27.5128 12.3127 27.7588 12.2178 28.0143 12.2178C28.2698 12.2178 28.5158 12.3127 28.703 12.4834C28.8902 12.6541 29.0047 12.888 29.0236 13.1382V27.27C29.0236 27.4848 29.1105 27.6909 29.2652 27.8428C29.4199 27.9947 29.6297 28.08 29.8486 28.08C30.0674 28.08 30.2772 27.9947 30.4319 27.8428C30.5866 27.6909 30.6736 27.4848 30.6736 27.27V15.66C30.6924 15.4098 30.8069 15.1759 30.9941 15.0052C31.1813 14.8345 31.4273 14.7396 31.6828 14.7396C31.9383 14.7396 32.1843 14.8345 32.3715 15.0052C32.5587 15.1759 32.6732 15.4098 32.692 15.66V28.4958C32.692 28.7106 32.779 28.9167 32.9337 29.0686C33.0884 29.2205 33.2982 29.3058 33.517 29.3058C33.7359 29.3058 33.9457 29.2205 34.1004 29.0686C34.2551 28.9167 34.3421 28.7106 34.3421 28.4958V21.6C34.3421 21.3379 34.4481 21.0866 34.6368 20.9012C34.8256 20.7159 35.0816 20.6118 35.3485 20.6118H35.4421C35.709 20.6118 35.965 20.7159 36.1538 20.9012C36.3425 21.0866 36.4485 21.3379 36.4485 21.6V35.3376Z" fill="black"/>
<path d="M36.4485 35.3376L34.3586 38.232C34.2587 38.3691 34.2049 38.5333 34.2045 38.7018V41.85H24.9481V38.7018C24.9492 38.5464 24.9033 38.3941 24.8161 38.2644L18.7936 29.0844L18.7496 29.025C18.601 28.8367 18.5303 28.6002 18.5517 28.3629C18.5731 28.1256 18.685 27.905 18.8651 27.7452C18.9602 27.6597 19.0724 27.5944 19.1945 27.5535C19.3166 27.5126 19.446 27.497 19.5746 27.5076C19.8223 27.526 20.0531 27.6383 20.2181 27.8208L21.8186 30.24C21.9141 30.3892 22.0566 30.5038 22.2244 30.5664C22.3923 30.6289 22.5763 30.6359 22.7486 30.5865C22.9209 30.537 23.0721 30.4337 23.1792 30.2922C23.2863 30.1508 23.3435 29.9789 23.3421 29.8026V17.9766C23.3421 17.7145 23.4481 17.4632 23.6368 17.2778C23.8256 17.0925 24.0816 16.9884 24.3486 16.9884C24.6155 16.9884 24.8715 17.0925 25.0603 17.2778C25.249 17.4632 25.3551 17.7145 25.3551 17.9766V27.27C25.3551 27.4848 25.442 27.6909 25.5967 27.8428C25.7514 27.9947 25.9612 28.08 26.1801 28.08C26.3989 28.08 26.6087 27.9947 26.7634 27.8428C26.9181 27.6909 27.0051 27.4848 27.0051 27.27V13.1382C27.0239 12.888 27.1384 12.6541 27.3256 12.4834C27.5128 12.3127 27.7588 12.2178 28.0143 12.2178C28.2698 12.2178 28.5158 12.3127 28.703 12.4834C28.8902 12.6541 29.0047 12.888 29.0236 13.1382V27.27C29.0236 27.4848 29.1105 27.6909 29.2652 27.8428C29.4199 27.9947 29.6297 28.08 29.8486 28.08C30.0674 28.08 30.2772 27.9947 30.4319 27.8428C30.5866 27.6909 30.6736 27.4848 30.6736 27.27V15.66C30.6924 15.4098 30.8069 15.1759 30.9941 15.0052C31.1813 14.8345 31.4273 14.7396 31.6828 14.7396C31.9383 14.7396 32.1843 14.8345 32.3715 15.0052C32.5587 15.1759 32.6732 15.4098 32.692 15.66V28.4958C32.692 28.7106 32.779 28.9167 32.9337 29.0686C33.0884 29.2205 33.2982 29.3058 33.517 29.3058C33.7359 29.3058 33.9457 29.2205 34.1004 29.0686C34.2551 28.9167 34.3421 28.7106 34.3421 28.4958V21.6C34.3421 21.3379 34.4481 21.0866 34.6368 20.9012C34.8256 20.7159 35.0816 20.6118 35.3485 20.6118H35.4421C35.709 20.6118 35.965 20.7159 36.1538 20.9012C36.3425 21.0866 36.4485 21.3379 36.4485 21.6V35.3376Z" fill="white"/>
</svg>
